X: 18
T: the Road to Boston
T: the March to Boston
O: 1775
R: reel
Z: 1997 by John Chambers <jc:trillian.mit.edu>
M: C|
L: 1/8
K: D
de \
| "D"f4 ~f2ef | "(G)"g2f2 e2d2 | "A7"c2d2 e2f2 | "D"d2A2 F2A2 \
| "D"f4 ~f2ef | "(G)"g2f2 e2d2 | "A7"c2d2 e2c2 | "D"d6       :|
|: fg \
| "D"a4    ~a2^ga | "G(Bm)"b2a2 g2f2 | "Em"g4  ~g2fg | "A7"a2g2 f2e2 \
| "D(Bm)"f4 ~f2ef | "G(Em)"g2f2 e2d2 | "A7"c2d2 e2c2 |  "D"d6       :|

%%sep 2 1 500

